lib/assets/trophy.svg

<svg enable-background="new 0 0 24 24" height="18" viewBox="0 0 24 24" width="18"
    xmlns="http://www.w3.org/2000/svg">
    <path d="m0 0h24v24h-24z" fill="none" />
    <path
        d="m19 5h-2v-2h-10v2h-2c-1.1 0-2 .9-2 2v1c0 2.55 1.92 4.63 4.39 4.94.63 1.5 1.98 2.63 3.61 2.96v3.1h-4v2h10v-2h-4v-3.1c1.63-.33 2.98-1.46 3.61-2.96 2.47-.31 4.39-2.39 4.39-4.94v-1c0-1.1-.9-2-2-2zm-14 3v-1h2v3.82c-1.16-.42-2-1.52-2-2.82zm14 0c0 1.3-.84 2.4-2 2.82v-3.82h2z" />
</svg>

<svg enable-background="new 0 0 24 24" fill="black" height="18px" viewBox="0 0 24 24" width="18px"
    xmlns="http://www.w3.org/2000/svg">
    <rect fill="none" height="24" width="24" />
    <path
        d="M19,5h-2V3H7v2H5C3.9,5,3,5.9,3,7v1c0,2.55,1.92,4.63,4.39,4.94c0.63,1.5,1.98,2.63,3.61,2.96V19H7v2h10v-2h-4v-3.1 c1.63-0.33,2.98-1.46,3.61-2.96C19.08,12.63,21,10.55,21,8V7C21,5.9,20.1,5,19,5z M5,8V7h2v3.82C5.84,10.4,5,9.3,5,8z M19,8 c0,1.3-0.84,2.4-2,2.82V7h2V8z" />
</svg>
